main/static/images/menu-icon.svg

<svg enable-background="new 0 0 100.4 100.4" viewBox="0 0 100.4 100.4" xmlns="http://www.w3.org/2000/svg"><g fill="#fff"><path d="m87.9 20.5c-.4-.3-.8-.4-1.3-.3l-36.4 8.9-36.4-8.9c-.4-.1-.9 0-1.3.3s-.6.7-.6 1.2v56.9c0 .7.5 1.3 1.1 1.5l36.8 9h.4s.2 0 .4 0l36.8-9c.7-.2 1.1-.8 1.1-1.5v-56.9c0-.5-.2-.9-.6-1.2zm-72.9 3.1 33.8 8.3v53.8l-33.8-8.3zm70.5 53.8-33.8 8.3v-53.8l33.8-8.3z"/><path d="m17.4 15.1 32.5 8h.4.4l32.5-8c.8-.2 1.3-1 1.1-1.8s-1-1.3-1.8-1.1l-32.3 7.8-32.2-7.9c-.8-.2-1.6.3-1.8 1.1s.4 1.7 1.2 1.9z"/></g></svg>

<?xml version="1.0" encoding="utf-8"?>
<!-- Generator: Adobe Illustrator 22.1.0, SVG Export Plug-In . SVG Version: 6.00 Build 0)  -->
<svg version="1.1" id="Layer_1" xmlns="http://www.w3.org/2000/svg" xmlns:xlink="http://www.w3.org/1999/xlink" x="0px" y="0px"
	 viewBox="0 0 100.4 100.4" style="enable-background:new 0 0 100.4 100.4;" xml:space="preserve">
<style type="text/css">
	.st0{fill:#FFFFFF;}
</style>
<g>
	<path class="st0" d="M87.9,20.5c-0.4-0.3-0.8-0.4-1.3-0.3l-36.4,8.9l-36.4-8.9c-0.4-0.1-0.9,0-1.3,0.3c-0.4,0.3-0.6,0.7-0.6,1.2
		v56.9c0,0.7,0.5,1.3,1.1,1.5l36.8,9c0.1,0,0.2,0,0.4,0s0.2,0,0.4,0l36.8-9c0.7-0.2,1.1-0.8,1.1-1.5V21.7
		C88.5,21.2,88.3,20.8,87.9,20.5z M15,23.6l33.8,8.3v53.8L15,77.4C15,77.4,15,23.6,15,23.6z M85.5,77.4l-33.8,8.3V31.9l33.8-8.3
		V77.4z"/>
	<path class="st0" d="M17.4,15.1l32.5,8c0.1,0,0.2,0,0.4,0c0,0,0,0,0,0h0h0c0,0,0,0,0,0c0.1,0,0.2,0,0.4,0l32.5-8
		c0.8-0.2,1.3-1,1.1-1.8s-1-1.3-1.8-1.1L50.2,20l-32.2-7.9c-0.8-0.2-1.6,0.3-1.8,1.1S16.6,14.9,17.4,15.1z"/>
</g>
</svg>
